X: 1
T: Old Dick's
M: 4/4
L: 1/8
R: reel
K: Dmaj
FAGE FAAG|(3FGA BG FDDF|GFEF GABd|ecdB cAGE|
FAGE FAAG|(3FGA BG FDDF|GFEF GABd|1 cAGE D2AG:|2 cABc ~d3g||
fded cAAB|=cedc BGGA|FGAB cdef|eBdc A2de|
fddf e=cce|dBed cAAF|(3EFG AB cdef|1 afge dAde:|2 afge d2AG||
